!!!OTL: Da Jinan
!!!ARE: Asia, China,ÿShandong Zibo
!! III, 354
!!!SCT: C1774
!!!YEM: Copyright 1995, estate of Helmut Schaffrath.
**kern
*ICvox
*Ivox
*M2/4
*k[b-e-a-]
*E-:
{8b-
16g
16b-
8g
8f
=1
16g
16f
4e-
8f
=2
8g
8b-
8cc
8g
=3
2b-}
=4
{4ee-
8b-
8cc
=5
4ee-
8cc
8g
=6
8b-
8g
8b-
8cc
=7
2b-}
=8
{8b-
8c
8e-
8f
=9
4g
4b-
=10
8cc
8b-
8g
8f
=11
2e-}
==
!!!AGN: Xiaodiao, Wugeng diao
!!!AMT: simple duple
!!!AIN: vox
!!!EED: Helmut Schaffrath
!!!EEV: 1.0
*-
